X:1
T:James Gibb editions
T:Psalm 101 (Becker) - Schütz
%%score [ ( 1 2 ) ( 3 4 ) ]
L:1/8
Q:1/4=98
M:none
K:F
V:1 treble nm="Soprano Alto"
V:2 treble 
V:3 bass nm="Tenor Bass"
V:4 bass 
V:1
"^Cornelius Becker\n(1561-1604)""^Psalm 101, SWV 199""^Heinrich Schütz\n(1585-1672)" z2 c2 c2 A2 B2 c2 d4 | %1
w: ~Von Gnad und Recht soll sin-|
w: Herr Gott, laß wohl ge- lin-|
 B2 G2 B2 c2 B2 A2 G6 :|[M:4/2] G2 | G4 F2 G4 A2 | B2 B2 A4 A4 | B4 c2 _e4 d2 c4 | %6
w: gen mein Mund ein schö- nes Lied,|für-|sich- tig ich mein|Sa- chen führ, geh|red- lich um mit al-|
w: gen, dein Lob ver- schweig ich nit,|||||
 B4 B4 (A3 B c2) B2 | A4 G4 F8 |] %8
w: len, die zu * * ge-|hö- ren mir.|
w: ||
V:2
 z2 F2 F2 F2 D2 F2 F4 | F2 _E2 G2 G2 G2 (FE) D6 :|[M:4/2] E2 | E4 D2 E4 ^F2 | G2 G2 ^F4 F4 | %5
 G4 A2 G4 F2 F4 | F4 G4 (F3 E/D/ C2) D2 | C4 C4 C8 |] %8
V:3
 z2 A,2 A,2 C2 B,2 A,2 B,4 | D2 B,2 _E2 E2 E2 C2 =B,6 :| %2
[M:4/2]"^2. In meinem Haus ich wandel \ntreulich und ohn Gefähr, \nnehm mir vor keinen Handel, \nder Gott zuwider wär, \nder Übertreter Feind bin ich, \nlaß den nicht bei mir bleiben, \nder Gottes Wort vernicht.\n\n3. Den Bösen ich nicht leide, \ner muß weichen von mir, \nverkehrtes Herz ich meide, \ndas abweicht, Herr, von dir,\nwer sein Nächsten mit falschem Mund \nund gift'ger Zung verleumdet,\nden vertilg ich zur Stund.\n\n4. Die sich so stolz gebärden \nund tragen hohen Mut, \nder'r Freund kann ich nicht werden, \nsie hans bei mir nicht gut, \nmein Augen sehen mit Begier \nnach treuen Leut'n im Lande,\ndaß sie wohnen bei mir." C2 | %3
 C4 A,2 C4 C2 | D2 D2 D4 D4 | %5
 D4 A,2 B,4"^5. Die mir solln an der Seite\nin meinem Dienste stehn, \nmüssen sein fromme Leute, \ndie mit Wahrheit umgehn, \nam Hof leid ich kein falschen Mann, \nsie können nicht gedeihen, \ndie mit Lügen bestahn.\n\n6. Die, so das Recht verkehren, \nbei mir nicht werden alt, \nGötzendienst, falsche Lehre \nvertilg ich alsobald,\ndamit ins Herren Stadt und Land\ngottlose Übeltäter \nnicht kriegen Oberhand." B,2 A,4 | %6
 B,4 D4 A,6 F,2 | F,4 E,4 F,8 |] %8
V:4
 z2 F,2 F,2 F,2 G,2 F,2 B,,4 | B,,2 _E,2 E,2 C,2 !courtesy!_E,2 F,2 G,6 :|[M:4/2] C,2 | %3
 C,4 D,2 C,4 A,,2 | G,,2 G,,2 D,4 D,4 | G,4 F,2 _E,4 B,,2 F,4 | B,,4 G,,4 (D,3 C,/B,,/ A,,2) B,,2 | %7
 F,,4 C,4 F,,8 |] %8

